src/assets/icons/bookmark-outline.svg

<svg width="24" height="25" viewBox="0 0 24 25" fill="none" xmlns="http://www.w3.org/2000/svg">
<mask id="mask0_6_395" style="mask-type:alpha" maskUnits="userSpaceOnUse" x="0" y="0" width="24" height="25">
<rect y="0.768066" width="24" height="24" fill="#C4C4C4"/>
</mask>
<g mask="url(#mask0_6_395)">
<path d="M19.55 22.9181C19.393 22.9181 19.238 22.8681 19.108 22.7741L11.65 17.3461L4.192 22.7761C3.964 22.9401 3.66199 22.9661 3.40999 22.8361C3.15999 22.7091 3 22.4511 3 22.1691V5.01807C3 3.77807 4.01 2.76807 5.25 2.76807H18.048C19.288 2.76807 20.298 3.77807 20.298 5.01807V22.1681C20.298 22.4501 20.14 22.7081 19.888 22.8361C19.782 22.8911 19.665 22.9181 19.548 22.9181H19.55ZM11.65 15.6681C11.805 15.6681 11.96 15.7161 12.09 15.8121L18.8 20.6951V5.01807C18.8 4.60607 18.463 4.26807 18.05 4.26807H5.25C4.837 4.26807 4.5 4.60607 4.5 5.01807V20.6951L11.21 15.8121C11.34 15.7161 11.495 15.6681 11.65 15.6681Z" fill="black"/>
</g>
</svg>

<svg width="24" height="25" fill="none" xmlns="http://www.w3.org/2000/svg"><mask id="a" style="mask-type:alpha" maskUnits="userSpaceOnUse" x="0" y="0" width="24" height="25"><path fill="#C4C4C4" d="M0 .768h24v24H0z"/></mask><g mask="url(#a)"><path d="M19.55 22.918a.755.755 0 0 1-.442-.144l-7.458-5.428-7.458 5.43A.75.75 0 0 1 3 22.17V5.02c0-1.24 1.01-2.25 2.25-2.25h12.798c1.24 0 2.25 1.01 2.25 2.25v17.15a.749.749 0 0 1-.75.75h.002zm-7.9-7.25a.74.74 0 0 1 .44.144l6.71 4.883V5.018a.752.752 0 0 0-.75-.75H5.25a.752.752 0 0 0-.75.75v15.677l6.71-4.883a.74.74 0 0 1 .44-.144z" fill="#000"/></g></svg>
